fonts/makina/uni0024.svg

<svg width="400" height="700" xmlns="http://www.w3.org/2000/svg">
    <path
        d="m 50,200 v 50 h 50 v -50 z m 0,50 H 0 v 150 h 50 z m 0,150 v 50 h 50 v -50 z m 50,50 v 50 h 150 v -50 z m 150,0 h 50 v -50 h -50 z m 50,-50 h 50 V 250 h -50 z m 0,-150 v -50 h -50 v 50 z" />
    <path
        d="M 50 200 L 50 250 L 100 250 L 100 200 L 50 200 z M 100 250 L 100 300 L 150 300 L 150 250 L 100 250 z M 150 300 L 150 350 L 200 350 L 200 300 L 150 300 z M 200 350 L 200 400 L 250 400 L 250 350 L 200 350 z M 250 400 L 250 450 L 300 450 L 300 400 L 250 400 z " />
    <path d="m 150,0 v 650 h 50 V 0 Z" />
</svg>

<svg width="400" height="700" xmlns="http://www.w3.org/2000/svg">
    <path d="M 150 0 L 150 150 L 100 150 L 100 200 L 150 200 L 150 250 L 100 250 L 100 300 L 150 300 L 150 350 L 150 450 L 100 450 L 100 500 L 150 500 L 150 650 L 200 650 L 200 500 L 250 500 L 250 450 L 200 450 L 200 400 L 250 400 L 250 350 L 200 350 L 200 200 L 250 200 L 250 150 L 200 150 L 200 0 L 150 0 z M 250 200 L 250 250 L 300 250 L 300 200 L 250 200 z M 300 250 L 300 300 L 350 300 L 350 250 L 300 250 z M 250 400 L 250 450 L 300 450 L 300 400 L 250 400 z M 300 400 L 350 400 L 350 350 L 300 350 L 300 400 z M 100 450 L 100 400 L 50 400 L 50 450 L 100 450 z M 50 400 L 50 350 L 0 350 L 0 400 L 50 400 z M 100 250 L 100 200 L 50 200 L 50 250 L 100 250 z M 50 250 L 0 250 L 0 300 L 50 300 L 50 250 z "/>
</svg>
